assets/images/12th/solid_state/solid_state_qn_001.svg

<svg xmlns="http://www.w3.org/2000/svg" width="300" height="200" fill="none" viewBox="0 0 300 200"><path fill="#000" d="M0 0h300v200H0z"/><path stroke="#fff" d="M130 103s-5 0-7.5 4.5 0 9 0 9"/><path fill="#fff" d="M107.104 113.24q-1.968 0-3.264-1.104-1.272-1.128-1.896-3.192-.624-2.088-.624-4.992 0-2.928.576-5.016t1.848-3.192q1.296-1.104 3.36-1.104 1.992 0 3.288 1.104 1.296 1.08 1.92 3.168.648 2.088.648 5.04 0 2.904-.6 4.992-.576 2.064-1.872 3.192-1.272 1.104-3.384 1.104m0-1.752q1.248 0 2.04-.72.816-.72 1.224-2.256t.456-4.008h-7.368q.048 2.448.408 3.984.384 1.536 1.176 2.28.792.72 2.064.72m-3.648-8.616h7.344q-.072-2.184-.48-3.6-.408-1.44-1.2-2.136-.792-.72-2.016-.72t-2.016.72q-.768.696-1.152 2.136-.384 1.416-.48 3.6"/><path stroke="#d56d6d" stroke-width="2" d="m20.619 16.215 128 101M275.38 19.215l-128 101M20.619 66.215l128 101M275.38 69.215l-128 101"/><path stroke="#fff" d="M32 116.5h235"/><circle cx="38" cy="117" r="4" fill="#00bacb"/><circle cx="93" cy="117" r="4" fill="#00bacb"/><circle cx="149" cy="117" r="4" fill="#00bacb"/><circle cx="204" cy="117" r="4" fill="#00bacb"/><circle cx="259" cy="117" r="4" fill="#00bacb"/><path stroke="#fff" d="M32 168.5h235"/><circle cx="38" cy="169" r="4" fill="#00bacb"/><circle cx="93" cy="169" r="4" fill="#00bacb"/><circle cx="149" cy="169" r="4" fill="#00bacb"/><circle cx="204" cy="169" r="4" fill="#00bacb"/><circle cx="259" cy="169" r="4" fill="#00bacb"/><path fill="#fff" d="M266.248 151.4v.6h-3.696v-1.896q-.744 1.104-1.656 1.632-.888.504-1.992.504-2.064 0-3.216-1.536-1.128-1.56-1.128-4.392v-.48q0-2.712 1.32-4.32 1.344-1.632 3.672-1.632 1.704 0 2.88 1.056v-4.752q0-.84-.072-.984t-.456-.192l-1.32-.12v-.648h3.816v15.816q0 .84.072.984t.456.192zm-9.528-4.368q0 2.256.648 3.312.672 1.056 1.848 1.056.768 0 1.584-.48t1.632-1.944v-6.864q-1.056-1.416-2.76-1.416-1.536 0-2.256 1.176-.696 1.176-.696 3.24zM86.088 29.24q-.456 0-.816-.144a1.4 1.4 0 0 1-.624-.432q-.24-.336-.456-.936l-1.896-5.352a81 81 0 0 0-.336-.984 52 52 0 0 0-.408-1.176l-.36-1.128a45 45 0 0 1-.24-.912h-.096a18 18 0 0 1-.528 1.992q-.336 1.128-.648 2.088L77.472 29h-2.256l4.704-12.912-.624-1.608q-.384-1.056-1.104-1.584-.696-.528-1.848-.528a5.5 5.5 0 0 0-.768.048q-.312.048-.576.096v-1.68q.216-.072.456-.096a6 6 0 0 1 .552-.072 7 7 0 0 1 .6-.024q1.248 0 2.136.408a3.96 3.96 0 0 1 1.56 1.272q.672.864 1.176 2.232l4.56 12.12q.144.336.24.528a.64.64 0 0 0 .216.24q.144.072.312.072.192 0 .36-.048t.288-.072v1.56q-.168.072-.384.144t-.456.096q-.24.048-.528.048"/><path stroke="#ff5f5f" stroke-width="3" d="M26 20s11.5-7 19.5 0 0 15.5 0 15.5S38 42.5 48 51s16.5 0 16.5 0"/><path fill="#fff" d="m245 120-2.887 5h5.774zm0 45 2.887-5h-5.774zm0-40.5h-.5v36h1v-36zM39 6l1.658 5.53 3.96-4.2zm35 33-1.658-5.53-3.96 4.2zM42.274 9.087l-.343.364 28.452 26.826.343-.364.343-.364L42.617 8.723z"/></svg>

<svg width="300" height="200" viewBox="0 0 300 200" fill="none" xmlns="http://www.w3.org/2000/svg">
<rect width="300" height="200" fill="black"/>
<path d="M130 103C130 103 125 103 122.5 107.5C120 112 122.5 116.5 122.5 116.5" stroke="white"/>
<path d="M107.104 113.24C105.792 113.24 104.704 112.872 103.84 112.136C102.992 111.384 102.36 110.32 101.944 108.944C101.528 107.552 101.32 105.888 101.32 103.952C101.32 102 101.512 100.328 101.896 98.936C102.28 97.544 102.896 96.48 103.744 95.744C104.608 95.008 105.728 94.64 107.104 94.64C108.432 94.64 109.528 95.008 110.392 95.744C111.256 96.464 111.896 97.52 112.312 98.912C112.744 100.304 112.96 101.984 112.96 103.952C112.96 105.888 112.76 107.552 112.36 108.944C111.976 110.32 111.352 111.384 110.488 112.136C109.64 112.872 108.512 113.24 107.104 113.24ZM107.104 111.488C107.936 111.488 108.616 111.248 109.144 110.768C109.688 110.288 110.096 109.536 110.368 108.512C110.64 107.488 110.792 106.152 110.824 104.504H103.456C103.488 106.136 103.624 107.464 103.864 108.488C104.12 109.512 104.512 110.272 105.04 110.768C105.568 111.248 106.256 111.488 107.104 111.488ZM103.456 102.872H110.8C110.752 101.416 110.592 100.216 110.32 99.272C110.048 98.312 109.648 97.6 109.12 97.136C108.592 96.656 107.92 96.416 107.104 96.416C106.288 96.416 105.616 96.656 105.088 97.136C104.576 97.6 104.192 98.312 103.936 99.272C103.68 100.216 103.52 101.416 103.456 102.872Z" fill="white"/>
<line x1="20.6194" y1="16.215" x2="148.619" y2="117.215" stroke="#D56D6D" stroke-width="2"/>
<line y1="-1" x2="163.049" y2="-1" transform="matrix(-0.78504 0.619445 0.619445 0.78504 276 20)" stroke="#D56D6D" stroke-width="2"/>
<line x1="20.6194" y1="66.215" x2="148.619" y2="167.215" stroke="#D56D6D" stroke-width="2"/>
<line y1="-1" x2="163.049" y2="-1" transform="matrix(-0.78504 0.619445 0.619445 0.78504 276 70)" stroke="#D56D6D" stroke-width="2"/>
<line x1="32" y1="116.5" x2="267" y2="116.5" stroke="white"/>
<circle cx="38" cy="117" r="4" fill="#00BACB"/>
<circle cx="93" cy="117" r="4" fill="#00BACB"/>
<circle cx="149" cy="117" r="4" fill="#00BACB"/>
<circle cx="204" cy="117" r="4" fill="#00BACB"/>
<circle cx="259" cy="117" r="4" fill="#00BACB"/>
<line x1="32" y1="168.5" x2="267" y2="168.5" stroke="white"/>
<circle cx="38" cy="169" r="4" fill="#00BACB"/>
<circle cx="93" cy="169" r="4" fill="#00BACB"/>
<circle cx="149" cy="169" r="4" fill="#00BACB"/>
<circle cx="204" cy="169" r="4" fill="#00BACB"/>
<circle cx="259" cy="169" r="4" fill="#00BACB"/>
<path d="M266.248 151.4V152H262.552V150.104C262.056 150.84 261.504 151.384 260.896 151.736C260.304 152.072 259.64 152.24 258.904 152.24C257.528 152.24 256.456 151.728 255.688 150.704C254.936 149.664 254.56 148.2 254.56 146.312V145.832C254.56 144.024 255 142.584 255.88 141.512C256.776 140.424 258 139.88 259.552 139.88C260.688 139.88 261.648 140.232 262.432 140.936V136.184C262.432 135.624 262.408 135.296 262.36 135.2C262.312 135.104 262.16 135.04 261.904 135.008L260.584 134.888V134.24H264.4V150.056C264.4 150.616 264.424 150.944 264.472 151.04C264.52 151.136 264.672 151.2 264.928 151.232L266.248 151.4ZM256.72 147.032C256.72 148.536 256.936 149.64 257.368 150.344C257.816 151.048 258.432 151.4 259.216 151.4C259.728 151.4 260.256 151.24 260.8 150.92C261.344 150.6 261.888 149.952 262.432 148.976V142.112C261.728 141.168 260.808 140.696 259.672 140.696C258.648 140.696 257.896 141.088 257.416 141.872C256.952 142.656 256.72 143.736 256.72 145.112V147.032Z" fill="white"/>
<path d="M86.088 29.24C85.784 29.24 85.512 29.192 85.272 29.096C85.032 29.016 84.824 28.872 84.648 28.664C84.488 28.44 84.336 28.128 84.192 27.728L82.296 22.376C82.2 22.088 82.088 21.76 81.96 21.392C81.832 21.008 81.696 20.616 81.552 20.216C81.424 19.816 81.304 19.44 81.192 19.088C81.096 18.736 81.016 18.432 80.952 18.176H80.856C80.744 18.752 80.568 19.416 80.328 20.168C80.104 20.92 79.888 21.616 79.68 22.256L77.472 29H75.216L79.92 16.088L79.296 14.48C79.04 13.776 78.672 13.248 78.192 12.896C77.728 12.544 77.112 12.368 76.344 12.368C76.056 12.368 75.8 12.384 75.576 12.416C75.368 12.448 75.176 12.48 75 12.512V10.832C75.144 10.784 75.296 10.752 75.456 10.736C75.632 10.704 75.816 10.68 76.008 10.664C76.2 10.648 76.4 10.64 76.608 10.64C77.44 10.64 78.152 10.776 78.744 11.048C79.352 11.32 79.872 11.744 80.304 12.32C80.752 12.896 81.144 13.64 81.48 14.552L86.04 26.672C86.136 26.896 86.216 27.072 86.28 27.2C86.344 27.312 86.416 27.392 86.496 27.44C86.592 27.488 86.696 27.512 86.808 27.512C86.936 27.512 87.056 27.496 87.168 27.464C87.28 27.432 87.376 27.408 87.456 27.392V28.952C87.344 29 87.216 29.048 87.072 29.096C86.928 29.144 86.776 29.176 86.616 29.192C86.456 29.224 86.28 29.24 86.088 29.24Z" fill="white"/>
<path d="M26 20C26 20 37.5 13 45.5 20C53.5 27 45.5 35.5 45.5 35.5C45.5 35.5 38 42.5 48 51C58 59.5 64.5 51 64.5 51" stroke="#FF5F5F" stroke-width="3"/>
<path d="M245 120L242.113 125L247.887 125L245 120ZM245 165L247.887 160L242.113 160L245 165ZM245 124.5L244.5 124.5L244.5 160.5L245 160.5L245.5 160.5L245.5 124.5L245 124.5Z" fill="white"/>
<path d="M39 6L40.6576 11.5304L44.6183 7.32969L39 6ZM74 39L72.3424 33.4696L68.3817 37.6703L74 39ZM42.2742 9.08706L41.9311 9.45085L70.3828 36.2767L70.7258 35.9129L71.0689 35.5491L42.6172 8.72326L42.2742 9.08706Z" fill="white"/>
</svg>
